X: 528
M:C
L:1/8
K:A
e2 ed cAAc | d2 fd c2 ac | B2 (d/2c/2B/2A/2) B=GG || B | efed c2 Ac | efed cAAc | efed c2 Ac |


